src/WeatherTwentyOne/Resources/Images/weather_partly_cloudy_day.svg

<svg width="228" height="185" viewBox="0 0 228 185" fill="none" xmlns="http://www.w3.org/2000/svg">
<path d="M127.895 51.2682C163.141 51.2682 183.137 74.6476 186.04 102.888H186.93C209.612 102.888 228 121.273 228 143.944C228 166.621 209.612 185 186.93 185H68.8482C46.1718 185 27.7837 166.621 27.7837 143.944C27.7837 121.273 46.1718 102.888 68.8537 102.888H69.7437C72.6693 74.4636 92.6425 51.2682 127.895 51.2682ZM25.4032 96.9399C26.6122 99.0398 26.9978 101.516 26.4847 103.885C25.9716 106.254 24.5966 108.347 22.6277 109.756L21.8379 110.263L14.6129 114.444C12.4473 115.701 9.88161 116.074 7.44877 115.485C5.01593 114.897 2.90287 113.391 1.54846 111.282C0.194057 109.173 -0.297607 106.621 0.175586 104.158C0.648778 101.695 2.05046 99.5093 4.08951 98.0548L4.87932 97.5476L12.11 93.3667C14.345 92.0738 17.0008 91.7233 19.4935 92.3923C21.9863 93.0613 24.112 94.6951 25.4032 96.9344V96.9399ZM104.028 43.7594C82.8867 50.5603 67.8248 66.559 61.6454 87.9149L61.1225 89.8102L60.4773 92.4636L58.1858 92.8929C51.5254 94.2973 45.2081 97.0084 39.5975 100.87C34.48 92.0861 32.5614 81.795 34.1689 71.7518C35.7763 61.7086 40.8103 52.5352 48.4122 45.7963C56.0141 39.0574 65.7132 35.1702 75.8553 34.7977C85.9974 34.4253 95.9543 37.5906 104.028 43.7538V43.7594ZM13.9232 40.0134L14.6574 40.32L22.2217 43.8542C24.5125 44.9099 26.3051 46.8154 27.222 49.1693C28.139 51.5233 28.1089 54.142 27.1379 56.4741C26.1669 58.8062 24.3309 60.6697 22.0165 61.6721C19.702 62.6746 17.0897 62.7379 14.7297 61.8486L13.9955 61.5364L6.43113 58.0022C4.15796 56.9355 2.38379 55.03 1.47908 52.6835C0.574374 50.337 0.60907 47.7309 1.57593 45.4095C2.54278 43.088 4.36705 41.2306 6.6678 40.2251C8.96856 39.2196 11.5679 39.1437 13.9232 40.0134ZM120.213 7.89321C122.215 9.29709 123.617 11.4041 124.14 13.7958C124.664 16.1875 124.271 18.689 123.039 20.8037L122.605 21.4782L117.822 28.3293C116.386 30.405 114.203 31.8416 111.731 32.3369C109.26 32.8322 106.693 32.3475 104.571 30.9848C102.45 29.6221 100.938 27.4877 100.354 25.0305C99.7702 22.5734 100.16 19.9851 101.442 17.8102L101.876 17.1413L106.659 10.2847C107.392 9.23458 108.324 8.33957 109.403 7.65075C110.481 6.96194 111.684 6.49283 112.943 6.27023C114.203 6.04763 115.493 6.07589 116.742 6.35341C117.99 6.63093 119.172 7.15227 120.219 7.88763L120.213 7.89321ZM62.9747 5.55193L63.3362 6.42155L66.1895 14.2816C67.0531 16.6383 66.9768 19.238 65.9766 21.5398C64.9763 23.8417 63.1291 25.6684 60.8193 26.6399C58.5094 27.6115 55.9147 27.653 53.575 26.756C51.2353 25.859 49.3307 24.0924 48.2576 21.8238L47.896 20.9542L45.0427 13.0942C44.1867 10.7389 44.2681 8.14381 45.2701 5.84711C46.2721 3.55041 48.1177 1.72841 50.4242 0.759021C52.7306 -0.210367 55.3209 -0.252739 57.6577 0.640694C59.9945 1.53413 61.8985 3.2948 62.9747 5.5575V5.55193Z" fill="url(#paint0_linear)"/>
<defs>
<linearGradient id="paint0_linear" x1="38.9342" y1="33.4469" x2="144.884" y2="155.851" gradientUnits="userSpaceOnUse">
<stop offset="0.10243" stop-color="#28C2D1"/>
<stop offset="0.925347" stop-color="#4931DE"/>
</linearGradient>
</defs>
</svg>

<svg width="228" height="185" fill="none" xmlns="http://www.w3.org/2000/svg">
    <path
        d="M127.895 51.268c35.246 0 55.242 23.38 58.145 51.62h.89c22.682 0 41.07 18.385 41.07 41.056C228 166.621 209.612 185 186.93 185H68.848c-22.676 0-41.064-18.379-41.064-41.056 0-22.671 18.388-41.056 41.07-41.056h.89c2.925-28.424 22.898-51.62 58.151-51.62zM25.403 96.94a9.775 9.775 0 011.082 6.945 9.76 9.76 0 01-3.857 5.871l-.79.507-7.225 4.181a9.716 9.716 0 01-7.164 1.041 9.732 9.732 0 01-5.9-4.203 9.774 9.774 0 01-1.373-7.124 9.757 9.757 0 013.914-6.103l.79-.507 7.23-4.181a9.715 9.715 0 017.384-.975 9.736 9.736 0 015.91 4.542v.006zm78.625-53.18c-21.141 6.8-36.203 22.799-42.383 44.155l-.523 1.895-.645 2.654-2.291.429a51.543 51.543 0 00-18.589 7.977 44.026 44.026 0 01-5.428-29.118 43.97 43.97 0 0114.243-25.956 43.792 43.792 0 0127.443-10.998 43.78 43.78 0 0128.173 8.956v.005zm-90.105-3.747l.734.307 7.565 3.534a9.745 9.745 0 015 5.315 9.776 9.776 0 01-.084 7.305 9.745 9.745 0 01-5.122 5.198 9.713 9.713 0 01-7.286.177l-.735-.313-7.564-3.534a9.747 9.747 0 01-4.952-5.319 9.775 9.775 0 01.097-7.273 9.745 9.745 0 015.092-5.185 9.713 9.713 0 017.255-.212zm106.29-32.12a9.77 9.77 0 012.826 12.91l-.434.675-4.783 6.851a9.732 9.732 0 01-6.091 4.008 9.716 9.716 0 01-7.16-1.352 9.772 9.772 0 01-3.129-13.175l.434-.669 4.783-6.856a9.734 9.734 0 016.284-4.015 9.715 9.715 0 017.276 1.618l-.006.005zM62.975 5.552l.361.87 2.853 7.86a9.776 9.776 0 01-.212 7.258 9.744 9.744 0 01-5.158 5.1 9.713 9.713 0 01-7.244.116 9.742 9.742 0 01-5.317-4.932l-.362-.87-2.853-7.86a9.776 9.776 0 01.227-7.247A9.744 9.744 0 0150.424.76a9.713 9.713 0 017.234-.118 9.742 9.742 0 015.317 4.917v-.006z"
        fill="url(#prefix__paint0_linear)" />
    <defs>
        <linearGradient id="prefix__paint0_linear" x1="38.934" y1="33.447" x2="144.884" y2="155.851"
            gradientUnits="userSpaceOnUse">
            <stop offset=".102" stop-color="#28C2D1" />
            <stop offset=".925" stop-color="#4931DE" />
        </linearGradient>
    </defs>
</svg>
